X:9
T:Le Seigneur a libr son peuple
M:C
L:1/8
K:C
CC|G3G AA GF|G2Gz cB AG|G4FG FE|D4CD EF|G4z4||
G GG GG|c3cB2AA|G2EEF2GG|D4CD EF|G3G G2GG|
c2ccB2AA|G2EE FF GG|D3CD2EF|G4-Gzz2||
